X:191
T:Simeron's Dance,The. (p)1665.PLFD.191
M:6/4
L:1/4
Q:3/4=90
S:Playford, Dancing Master,2nd Supp. to 3rd Ed.,1665
O:England
H:166
Z:Chris Partington
K:G
e/f/|gG2B2c|dD2F2G|(Ac2)(Bd2)|1A3G2:|2A3G3|
|:(Bd2)g2B|(ce2)a2^c|defgaf|e3d2(e/f/)|
(g/f/)(e/d/)gd2c|Bc/B/A/G/F2G|(Ac2)(Bd2)|A3G3|]
